X:1
T:Title
%%score { ( 1 3 ) | ( 2 4 ) }
L:1/8
M:4/4
K:Bb
V:1 treble nm="Grand Piano"
V:3 treble 
V:2 bass 
V:4 bass 
V:1
 z4 z2[Q:1/4=108] F2 | [DB]2 [DB]2 [DB]2 [DB]>[Dc] | B2 A4 F2 | [EAc]2 [EAc]2 [EAc]2 [EAc]>[FAd] | %4
 c2 B4 F2 | B2 B2 B2 c>d | [EGe]2 [B,EG]4 [EGd]>[EGc] | [DFB]4 [CA]4 |[M:3/4] [B,DB]6 |[M:1/4] FF | %10
[M:4/4] [B,DB]2 [B,DF]2 z2 F>F | c2 F2 z2 FF | B2 c2 d2 [Ge]2 | d2 c2 z2 c2 | d4 z2 dd | %15
 [FAc]4 z2 [DGc][DGB] | [FA]4 [B,=EG]4 | [A,F]6 [A,EF]>[A,EF] | [B,DB]2 [B,DF]2 z2 F>F | %19
 c2 F2 z2 FF | B2 c2 d2 [Ge]2 | d2 c2 z2 c>c | d2 d2 z2 d>d | [Ge]2 [Ge]2 z4 | %24
 [Fd]4 [Ac]4[Q:1/4=106][Q:1/4=105][Q:1/4=103][Q:1/4=101][Q:1/4=100][Q:1/4=98][Q:1/4=96][Q:1/4=95][Q:1/4=93][Q:1/4=91][Q:1/4=89][Q:1/4=88][Q:1/4=86][Q:1/4=84][Q:1/4=83] | %25
[M:3/4] [DFB]6 |] %26
V:2
 z4 z2 F,2 | [B,,B,]2 [B,,B,]2 [B,,B,]2 [B,,B,]>[B,,B,] | [F,CE]2 [F,CE]4 F,2 | F,2 F,2 F,2 F,>F, | %4
 [B,EA]2 [B,DF]4 [B,D]2 | [B,DF]2 [B,DF]2 [B,DF]2 [B,E_A]>[B,FA] | E,2 E,4 E,>E, | F,4 z2 E2 | %8
[M:3/4] B,,6 |[M:1/4] F,F, |[M:4/4] B,,2 B,,2 z2 F,>F, | [F,A,E]2 [F,A,E]2 z2 [F,E][F,E] | %12
 [B,DF]2 [A,CF]2 [B,F]2[K:bass] [E,B,]2 | [F,B,F]2 [F,A,F]2 z2[K:treble] [F,A,F]2 | %14
 [B,F]4 z2 [B,FB][B,FB] | F,4 z2 G,G, | C4 C,4 | F,2 E,2 D,2 C,>C, | B,,2 B,,2 z2 F,>F, | %19
 [F,A,E]2 [F,A,E]2 z2 [F,E][F,E] | [B,DF]2 [A,CF]2 [B,F]2[K:bass] [E,B,]2 | %21
 [F,B,F]2 [F,A,F]2 z2[K:treble] [F,A,F]>[F,A,F] | [B,F]2 [B,F]2 z2 [B,F_A]>[B,FA] | %23
 [E,E]2 [E,E]2 z4 | [F,B,]4 [F,E]4 |[M:3/4] [B,,B,]6 |] %26
V:3
 x8 | x8 | x8 | x8 | x8 | x8 | x8 | z4 F2 z2 |[M:3/4] x6 |[M:1/4] x2 |[M:4/4] x8 | x8 | x8 | x8 | %14
 x8 | x8 | x8 | x8 | x8 | x8 | x8 | x8 | x8 | x8 | x8 |[M:3/4] x6 |] %26
V:4
 x8 | x8 | x8 | x8 | x8 | x8 | x8 | z4 F,4 |[M:3/4] x6 |[M:1/4] x2 |[M:4/4] x8 | x8 | %12
 x6[K:bass] x2 | x6[K:treble] x2 | x8 | x8 | x8 | x8 | x8 | x8 | x6[K:bass] x2 | x6[K:treble] x2 | %22
 x8 | x8 | x8 |[M:3/4] x6 |] %26

